svgs/light/trowel-bricks.svg

<svg xmlns="http://www.w3.org/2000/svg" viewBox="0 0 512 512"><!--! Font Awesome Pro 6.6.0 by @fontawesome - https://fontawesome.com License - https://fontawesome.com/license (Commercial License) Copyright 2024 Fonticons, Inc. --><path d="M32 128L224 32l0 192L32 128zM256 32c0-11.1-5.7-21.4-15.2-27.2s-21.2-6.4-31.1-1.4l-192 96C6.8 104.8 0 115.9 0 128s6.8 23.2 17.7 28.6l192 96c9.9 5 21.7 4.4 31.1-1.4s15.2-16.1 15.2-27.2l0-80 88 0c0 17.7 14.3 32 32 32l88 0c26.5 0 48-21.5 48-48s-21.5-48-48-48l-88 0c-17.7 0-32 14.3-32 32l-88 0 0-80zm208 80c8.8 0 16 7.2 16 16s-7.2 16-16 16l-88 0 0-32 88 0zM288 384l16 0 16 0 160 0 0 8 0 88-224 0 0-96 32 0zm-64 0l0 96L32 480l0-96 192 0zm256-32l-160 0 0-96 160 0 0 96zM288 256l0 64 0 32-32 0L32 352c-17.7 0-32 14.3-32 32l0 96c0 17.7 14.3 32 32 32l448 0c17.7 0 32-14.3 32-32l0-88 0-8 0-128c0-17.7-14.3-32-32-32l-160 0c-17.7 0-32 14.3-32 32z"/></svg>

<svg xmlns="http://www.w3.org/2000/svg" viewBox="0 0 512 512"><!--! Font Awesome Pro 6.4.2 by @fontawesome - https://fontawesome.com License - https://fontawesome.com/license (Commercial License) Copyright 2023 Fonticons, Inc. --><path d="M32 128L224 32V224L32 128zM256 32c0-11.1-5.7-21.4-15.2-27.2s-21.2-6.4-31.1-1.4l-192 96C6.8 104.8 0 115.9 0 128s6.8 23.2 17.7 28.6l192 96c9.9 5 21.7 4.4 31.1-1.4s15.2-16.1 15.2-27.2V144l88 0c0 17.7 14.3 32 32 32h88c26.5 0 48-21.5 48-48s-21.5-48-48-48H376c-17.7 0-32 14.3-32 32l-88 0V32zm208 80c8.8 0 16 7.2 16 16s-7.2 16-16 16H376V112h88zM288 384h16 16H480v8 88H256V384h32zm-64 0v96H32V384H224zm256-32H320V256H480v96zM288 256v64 32H256 32c-17.7 0-32 14.3-32 32v96c0 17.7 14.3 32 32 32H480c17.7 0 32-14.3 32-32V392v-8V256c0-17.7-14.3-32-32-32H320c-17.7 0-32 14.3-32 32z"/></svg>
